brandFactory_export/2.Regular/Huella_2Regular.svg

<?xml version="1.0" encoding="UTF-8"?>
<svg width="24px" height="24px" viewBox="0 0 24 24" version="1.1" xmlns="http://www.w3.org/2000/svg" xmlns:xlink="http://www.w3.org/1999/xlink">
    <title>2.Regular/Huella_2Regular</title>
    <g id="Symbols" stroke="none" stroke-width="1" fill="none" fill-rule="evenodd">
        <g id="2.Regular/Huella_2Regular" fill="#5CB615" fill-rule="nonzero">
            <path d="M13.3344538,2.71932773 C13.5596639,2.75630252 14.7529412,2.98487395 16.0806723,3.82521008 C17.405042,4.66554622 19.1394958,6.29915966 19.8756303,9.32773109 C19.9327731,9.54285714 20.3831933,11.3445378 19.4218487,12.6352941 C18.8302521,13.4285714 17.8756303,13.8420168 16.5882353,13.8588235 C16.3563025,13.8789916 15.5394958,13.892437 14.7563025,13.2705882 C13.9764706,12.6453782 13.5092437,11.6134454 13.3747899,10.2016807 C13.3378151,9.79495798 13.1697479,9.4789916 12.8806723,9.25714286 C12.4806723,8.9512605 11.8554622,8.83361345 11.2067227,8.94117647 L11.1697479,8.94789916 L11.1462185,8.94789916 C11.1058824,8.9512605 10.7092437,9.00168067 10.3159664,9.24369748 C9.81176471,9.55294118 9.5394958,10.0302521 9.48907563,10.702521 C9.42521008,11.5327731 9.68403361,12.8907563 10.605042,14.2117647 C11.2840336,15.1865546 12.5512605,16.4605042 14.7462185,16.994958 C15.1327731,17.0890756 15.3714286,17.4789916 15.2773109,17.8689076 C15.1831933,18.2554622 14.7932773,18.4941176 14.4033613,18.4 C11.7714286,17.7579832 10.2420168,16.2184874 9.41848739,15.0420168 C8.45378151,13.6537815 7.9394958,11.9932773 8.04705882,10.594958 C8.16134454,9.12268908 8.96806723,8.35630252 9.62689076,7.97310924 C10.2386555,7.61680672 10.8235294,7.53277311 10.9882353,7.51260504 C12.0302521,7.34117647 13.0386555,7.55966387 13.7579832,8.11092437 C14.3697479,8.58151261 14.7327731,9.25714286 14.810084,10.0638655 C14.9042017,11.0554622 15.1966387,11.7747899 15.6537815,12.1378151 C16.0436975,12.4504202 16.4504202,12.4201681 16.4537815,12.4201681 L16.497479,12.4134454 L16.5411765,12.4134454 C17.3714286,12.4067227 17.9495798,12.1882353 18.2621849,11.7714286 C18.7428571,11.1294118 18.5781513,10.0403361 18.4806723,9.70756303 L18.4739496,9.67731092 C17.2907563,4.78655462 13.1394958,4.14789916 13.0957983,4.14117647 L13.0655462,4.13781513 L13.0352941,4.13109244 C10.2722689,3.49243697 7.29411765,4.5210084 5.61680672,6.68907563 C4.29579832,8.4 3.95966387,10.8033613 4.66890756,13.4588235 C5.30420168,15.8352941 6.75966387,18.1915966 8.46386555,19.610084 C9.95630252,20.8504202 11.7210084,21.7647059 13.4352941,22.1781513 C13.8218487,22.2722689 14.0605042,22.6621849 13.9663866,23.0487395 C13.8890756,23.3848739 13.5932773,23.6067227 13.2672269,23.6067227 C13.210084,23.6067227 13.1529412,23.6 13.0957983,23.5865546 C11.1731092,23.1226891 9.2,22.1042017 7.5394958,20.7260504 C5.58655462,19.102521 3.99327731,16.5243697 3.27394958,13.8352941 C2.44369748,10.7361345 2.87058824,7.88571429 4.47394958,5.80840336 C6.48067227,3.20672269 10.0403361,1.96638655 13.3344538,2.71932773 Z M12.3798319,4.98823529 C13.7277311,5.19663866 14.9882353,5.85882353 15.9260504,6.85714286 C16.907563,7.89915966 17.4386555,9.21344538 17.4285714,10.5546218 C17.4252101,10.9512605 17.102521,11.2705882 16.7058824,11.2705882 L16.6991597,11.2705882 C16.2991597,11.2672269 15.9798319,10.9411765 15.9831933,10.5411765 C16,8.55798319 14.3193277,6.74621849 12.1579832,6.41344538 C10.0504202,6.0907563 7.99663866,7.23697479 7.3815126,9.08571429 L7.37478992,9.09915966 C6.73613445,10.8907563 6.8907563,12.789916 7.82184874,14.5882353 C9.04537815,16.9478992 11.5697479,18.9546218 14.2521008,19.7008403 C14.6352941,19.8084034 14.8605042,20.205042 14.7563025,20.5882353 C14.6689076,20.907563 14.3798319,21.1193277 14.0605042,21.1193277 C13.9966387,21.1193277 13.9327731,21.1092437 13.8655462,21.092437 C10.7697479,20.2319328 7.96302521,17.9966387 6.54117647,15.2537815 C5.41848739,13.092437 5.23697479,10.8 6.01344538,8.62184874 C6.42689076,7.38487395 7.31092437,6.3394958 8.50420168,5.67394958 C9.66722689,5.02521008 11.0420168,4.78319328 12.3798319,4.98823529 Z M11.2336134,9.55294118 C11.6336134,9.53613445 11.9663866,9.8487395 11.9831933,10.2453782 C11.9865546,10.2823529 12.1109244,12.6857143 13.7378151,13.9966387 C14.7226891,14.789916 16.0941176,15.0420168 17.8084034,14.7495798 C18.2016807,14.6823529 18.5747899,14.9445378 18.6420168,15.3378151 C18.7092437,15.7310924 18.4470588,16.1042017 18.0537815,16.1714286 C17.5058824,16.2621849 16.9848739,16.3092437 16.487395,16.3092437 C15.0352941,16.3092437 13.8084034,15.9092437 12.8201681,15.1092437 C10.6823529,13.3747899 10.5445378,10.4268908 10.5411765,10.302521 C10.5243697,9.90252101 10.8369748,9.5697479 11.2336134,9.55294118 Z M15.005042,0.507563025 C17.3579832,1.24369748 19.5663866,2.85378151 20.9176471,4.81680672 C21.1428571,5.14621849 21.0621849,5.59327731 20.7327731,5.82184874 C20.6016807,5.90588235 20.4571429,5.94957983 20.3159664,5.94957983 C20.087395,5.94957983 19.8621849,5.83865546 19.7210084,5.63697479 C18.5478992,3.92941176 16.6218487,2.52773109 14.5680672,1.88571429 C11.502521,0.927731092 8.17478992,1.55294118 5.43865546,3.60336134 C4.68571429,4.16470588 3.95630252,4.83697479 3.26722689,5.60672269 C3.00168067,5.90252101 2.54453781,5.92941176 2.2487395,5.6605042 C1.95294118,5.39495798 1.92941176,4.93781513 2.19495798,4.64201681 C2.94789916,3.80168067 3.7512605,3.06554622 4.57815126,2.44705882 C7.6907563,0.117647059 11.4890756,-0.588235294 15.005042,0.507563025 Z" id="Huella_2Regular"></path>
        </g>
    </g>
</svg>

<svg width="24" height="24" viewBox="0 0 24 24" xmlns="http://www.w3.org/2000/svg"><path d="M13.334 2.72c.226.036 1.419.265 2.747 1.105 1.324.84 3.058 2.474 3.795 5.503.057.215.507 2.017-.454 3.307-.592.794-1.546 1.207-2.834 1.224a2.664 2.664 0 01-1.832-.588c-.78-.626-1.247-1.658-1.381-3.07-.037-.406-.205-.722-.494-.944-.4-.306-1.026-.423-1.674-.316l-.037.007h-.024a2.16 2.16 0 00-.83.296c-.504.309-.777.786-.827 1.459-.064.83.195 2.188 1.116 3.509.679.975 1.946 2.249 4.141 2.783a.724.724 0 01-.343 1.405c-2.632-.642-4.161-2.182-4.985-3.358-.964-1.388-1.479-3.049-1.37-4.447.113-1.472.92-2.239 1.579-2.622a3.667 3.667 0 011.361-.46c1.042-.172 2.05.047 2.77.598.612.47.975 1.146 1.052 1.953.094.991.387 1.71.844 2.074.39.312.796.282.8.282l.043-.007h.044c.83-.006 1.409-.225 1.721-.642.48-.642.316-1.73.219-2.063l-.007-.03c-1.183-4.891-5.335-5.53-5.378-5.537l-.03-.003-.03-.007c-2.764-.639-5.742.39-7.42 2.558-1.32 1.711-1.656 4.114-.947 6.77.635 2.376 2.09 4.733 3.795 6.151 1.492 1.24 3.257 2.155 4.971 2.568a.722.722 0 01.531.87.717.717 0 01-.87.539c-1.923-.464-3.896-1.483-5.557-2.86-1.952-1.624-3.546-4.203-4.265-6.892-.83-3.099-.403-5.95 1.2-8.027 2.007-2.601 5.566-3.842 8.86-3.089zm-.954 2.268a6.185 6.185 0 013.546 1.87c.982 1.041 1.513 2.355 1.503 3.697a.722.722 0 01-.723.716h-.007a.722.722 0 01-.716-.73C16 8.558 14.32 6.746 12.158 6.413c-2.108-.322-4.161.824-4.776 2.673l-.007.013c-.639 1.792-.484 3.69.447 5.49 1.223 2.359 3.748 4.366 6.43 5.112a.721.721 0 11-.387 1.392c-3.095-.861-5.902-3.096-7.324-5.84-1.123-2.16-1.304-4.453-.528-6.631.414-1.237 1.298-2.283 2.491-2.948a6.09 6.09 0 013.876-.686zm-1.146 4.565c.4-.017.732.296.75.692.003.037.127 2.44 1.754 3.752.985.793 2.356 1.045 4.07.753a.72.72 0 11.246 1.421 9.594 9.594 0 01-1.567.138c-1.452 0-2.679-.4-3.667-1.2-2.138-1.734-2.275-4.682-2.279-4.806a.721.721 0 01.693-.75zM15.005.508c2.353.736 4.561 2.346 5.913 4.309a.723.723 0 01-.185 1.005.728.728 0 01-1.012-.185c-1.173-1.708-3.1-3.11-5.153-3.751-3.065-.958-6.393-.333-9.13 1.717a14.837 14.837 0 00-2.17 2.004.722.722 0 01-1.072-.965 16.438 16.438 0 012.382-2.195C7.691.117 11.49-.588 15.005.507z" fill="#5CB615" fill-rule="nonzero"/></svg>
